X:5118
T:The Magic Mushroom
M:4/4
R:Reel
L:1/8
Q:180
C:Aidan Crossey
K:D
|:A2FA dfed|B2eB gB dB|A2FA dfed|gBcA d2d2:||
|:f2af bafa|gece dcBA|f2af bafa|gBcA d2 d2:||
